src/icons/mint.svg

<svg viewBox="0 0 256 256" xmlns="http://www.w3.org/2000/svg"><defs><linearGradient id="a" x1="260.59" x2="260.59" y1="665.14" y2="435.85" gradientTransform="translate(-121.68 -399.26) scale(.95906)" gradientUnits="userSpaceOnUse"><stop stop-color="#247e3d" offset="0"/><stop stop-color="#56cf86" offset="1"/></linearGradient></defs><path d="M128 18.753c-2.84 10.841-27.094 17.766-28.772 31.512l-2.738-8.22C82.21 60.232 83.473 69.446 83.473 69.446l-1.2-6.593c-10.422 17.426-8.215 25.963-7.012 28.566l.505.892s-.225-.287-.505-.892l-2.748-4.846c-10.824 29.941-1.371 39.133-1.371 39.133l-5.822-6.764c-2.573 22.94 4.11 32.368 4.11 32.368l-4.196-3.94c-.534 15.582 9.677 24.833 9.677 24.833l-6.73-4.615c12.951 56.58 38.666 58.104 41.982 58.061l-10.25.331c6.836 7.318 15.562 10.156 21.464 11.267 3.218-17.067 6.176-58.395 6.623-166.69.447 108.29 3.407 149.62 6.625 166.69 5.903-1.112 14.629-3.951 21.464-11.267l-10.248-.33c3.32.042 29.03-1.488 41.98-58.062l-6.73 4.616s10.211-9.25 9.677-24.833l-4.196 3.94s6.683-9.427 4.11-32.368l-5.822 6.764s9.453-9.192-1.371-39.133l-2.746 4.84c-.281.609-.508.895-.508.895l.508-.894c1.204-2.609 3.403-11.145-7.015-28.561l-1.199 6.593s1.264-9.215-13.017-27.402l-2.74 8.221c-1.677-13.745-25.93-20.67-28.771-31.51z" fill="url(#a)" fill-rule="evenodd" style="fill:#43a047"/></svg>

<svg viewBox="0 0 256 256" xmlns="http://www.w3.org/2000/svg">
  <path
    d="M128 18.753C125.16 29.594 100.906 36.519 99.228 50.265L96.49 42.045C82.21 60.232 83.473 69.446 83.473 69.446L82.273 62.853C71.851 80.279 74.058 88.816 75.261 91.419L75.766 92.311C75.766 92.311 75.541 92.024 75.261 91.419L72.513 86.573C61.689 116.514 71.142 125.706 71.142 125.706L65.32 118.942C62.747 141.882 69.43 151.31 69.43 151.31L65.234 147.37C64.7 162.952 74.911 172.203 74.911 172.203L68.181 167.588C81.132 224.168 106.847 225.692 110.163 225.649L99.913 225.98C106.749 233.298 115.475 236.136 121.377 237.247C124.595 220.18 127.553 178.852 128 70.557C128.447 178.847 131.407 220.177 134.625 237.247C140.528 236.135 149.254 233.296 156.089 225.98L145.841 225.65C149.161 225.692 174.871 224.162 187.821 167.588L181.091 172.204C181.091 172.204 191.302 162.954 190.768 147.371L186.572 151.311C186.572 151.311 193.255 141.884 190.682 118.943L184.86 125.707C184.86 125.707 194.313 116.515 183.489 86.574L180.743 91.414C180.462 92.023 180.235 92.309 180.235 92.309L180.743 91.414C181.947 88.805 184.146 80.27 173.728 62.854L172.529 69.447C172.529 69.447 173.793 60.232 159.512 42.045L156.772 50.266C155.095 36.521 130.842 29.596 128.001 18.756L128 18.753Z"
    fill="#43A047"
  />
</svg>
